dist/img/icons/download.svg

<svg width="14" height="15" viewBox="0 0 14 15" fill="none" xmlns="http://www.w3.org/2000/svg">
<path d="M5.90625 0.75C5.52344 0.75 5.25 1.05078 5.25 1.40625V6H2.84375C2.35156 6 2.10547 6.60156 2.46094 6.95703L6.61719 11.1133C6.80859 11.3047 7.16406 11.3047 7.35547 11.1133L11.5117 6.95703C11.8672 6.60156 11.6211 6 11.1289 6H8.75V1.40625C8.75 1.05078 8.44922 0.75 8.09375 0.75H5.90625ZM14 11.0312C14 10.6758 13.6992 10.375 13.3438 10.375H9.32422L7.98438 11.7148C7.4375 12.2891 6.53516 12.2891 5.98828 11.7148L4.64844 10.375H0.65625C0.273438 10.375 0 10.6758 0 11.0312V14.0938C0 14.4766 0.273438 14.75 0.65625 14.75H13.3438C13.6992 14.75 14 14.4766 14 14.0938V11.0312ZM10.6094 13.4375C10.6094 13.7383 10.3633 13.9844 10.0625 13.9844C9.76172 13.9844 9.51562 13.7383 9.51562 13.4375C9.51562 13.1367 9.76172 12.8906 10.0625 12.8906C10.3633 12.8906 10.6094 13.1367 10.6094 13.4375ZM12.3594 13.4375C12.3594 13.7383 12.1133 13.9844 11.8125 13.9844C11.5117 13.9844 11.2656 13.7383 11.2656 13.4375C11.2656 13.1367 11.5117 12.8906 11.8125 12.8906C12.1133 12.8906 12.3594 13.1367 12.3594 13.4375Z" fill="white"/>
</svg>

<svg xmlns="http://www.w3.org/2000/svg" width="14" height="15" fill="none">
	<path fill="#fff"
		d="M5.906.75c-.383 0-.656.3-.656.656V6H2.844c-.492 0-.739.602-.383.957l4.156 4.156a.546.546 0 0 0 .738 0l4.157-4.156c.355-.355.11-.957-.383-.957H8.75V1.406c0-.355-.3-.656-.656-.656H5.906ZM14 11.031c0-.355-.3-.656-.656-.656h-4.02l-1.34 1.34a1.372 1.372 0 0 1-1.996 0l-1.34-1.34H.656c-.383 0-.656.3-.656.656v3.063c0 .383.273.656.656.656h12.688a.648.648 0 0 0 .656-.656V11.03Zm-3.39 2.406c0 .301-.247.547-.547.547a.548.548 0 0 1-.547-.546c0-.301.246-.547.546-.547.301 0 .547.246.547.546Zm1.75 0c0 .301-.247.547-.547.547a.549.549 0 0 1-.547-.546c0-.301.246-.547.546-.547.301 0 .547.246.547.546Z" />
</svg>
